!!!!SEGMENT: Ver3024-Madonna_qual_certeca.krn
!!!id: Ver3024
!!!AGN: Madrigal
!!!SCT: Slim (1972)
!!!voices: 4
!!!COM: Philippe Verdelot
!!!OTL: Madonna, qual certeca
**kern	**kern	**kern	**kern
*part4	*part3	*part2	*part1
*staff4	*staff3	*staff2	*staff1
*I"Bassus	*I"Tenor	*I"Altus	*I"Superius
*I'B	*I'T	*I'A	*I'S
*clefF4	*clefGv2	*clefGv2	*clefG2
*k[b-]	*k[b-]	*k[b-]	*k[b-]
*F:	*F:	*F:	*F:
*M2/1	*M2/1	*M2/1	*M2/1
*met(C)	*met(C)	*met(C)	*met(CC)
=1	=1	=1	=1
1G	1G	1d	1g
[1G	[1d	[1g	[1b-y
=2	=2	=2	=2
1G]	1d]	1g]	1b-]
1D	1d	1f	1a
=3	=3	=3	=3
2A	2c	2e	2a
2B-y	2.d	2d	2g
1A	.	1e	1a
.	8c#iL	.	.
.	8BniJ	.	.
.	2c#i	.	.
=4	=4	=4	=4
1D	1d	1f	1a
2r	2r	2r	2r
2D	2d	2f	2a
=5	=5	=5	=5
2F	2c	2f	2a
2F	2f	2a	2cc
2G	2e	2.g	2cc
2G	2d	.	2b-y
.	.	4f	.
=6	=6	=6	=6
1A	1c	1e	1.cc
1F	1A	1f	.
.	.	.	2cc
=7	=7	=7	=7
2F	2c	2f	2a
2G	2B-y	2d	2b-y
1C	1c	1e	1g
=8	=8	=8	=8
1D	1A	1d	1f
2r	2r	2r	2r
2D	2A	2d	2f
=9	=9	=9	=9
2D	2B-y	2d	2f
2D	2A	2d	2f
2G	2B-y	2d	2g
2G	2B-y	2d	2g
=10	=10	=10	=10
2.F	4c	2f	1a
.	4B-y	.	.
.	4A	2c	.
4E	4G	.	.
4D	4F	2r	2a
4C	4E	.	.
4BB-y	2D	[2d	[2b-y
4AA	.	.	.
=11	=11	=11	=11
2GG	2.d	4d]	4b-]
.	.	4c	4a
2.G	.	4B-y	4g
.	4c	4A	4f
.	2B-y	2G	2g
4F	.	.	.
4E	[2e-i	[2g	[2cc
4D	.	.	.
=12	=12	=12	=12
1C	4e-]	4g]	4cc]
.	4d	4f	4b-y
.	4c	2e	4a
.	4B-y	.	4g
2D	2A	2d	2f
2BB-y	2d	2f	2b-y
=13	=13	=13	=13
1C	2.c	1e	2a
.	.	.	1g
.	4B-y	.	.
1D	1A	1d	.
.	.	.	2f#i
=14	=14	=14	=14
0GG;	0G;	0d;	0g;
=15	=15	=15	=15
0E-X	0B-y	0e-X	0g
=16	=16	=16	=16
2BB-y	2B-y	2d	2f
4r	4r	4r	4r
4BB-y	4B-y	4d	4f
2C	2G	2c	2e
2D	2F	4B-y	2d
.	.	4A	.
=17	=17	=17	=17
1E-i	1G	1G	4c
.	.	.	4B-y
.	.	.	2c
2D	2A	2F	2d
2D	2d	2f	2a
=18	=18	=18	=18
2G	2d	2g	2b-y
2F	2f	2c	2a
2A	2e	2c	2a
2B-y	2d	2d	2g
=19	=19	=19	=19
2A	2c	2e	2a
2A	2c	2e	2a
2r	2r	2r	2r
2D	2A	2d	2f
=20	=20	=20	=20
2D	2A	2d	2f
2D	2A	2d	2f
2G	2B-y	2d	2g
2G	2B-y	2d	2g
=21	=21	=21	=21
2F	2c	2.f	2a
2F	2A	.	2a
.	.	4e	.
2B-y	2B-y	2d	2f
2A	2F	2c	2f
=22	=22	=22	=22
1G	1B-y	4d	1g
.	.	4c	.
.	.	4d	.
.	.	4e	.
1F	1c	1f	1a
=23	=23	=23	=23
2r	2r	2r	2r
2F	2c	2f	2a
2F	2c	2f	2a
2F	2c	2f	2a
=24	=24	=24	=24
2E-X	2e-X	2g	2b-y
2E-i	2e-i	2g	2b-y
1F	1c	1f	2.a
.	.	.	4a
=25	=25	=25	=25
1BB-y	2.B-y	1d	2g
.	.	.	2f
.	4A	.	.
2C	2G	2c	2e
2D	2F	2B-y	[2d
=26	=26	=26	=26
1AA	1E	1A	4d]
.	.	.	8c#iL
.	.	.	8BniJ
.	.	.	2c#i
[1A	[1D	[1F	[1d
=27	=27	=27	=27
1A;]	1D;]	1F;]	1d;]
[1D	[1A	[1f	[1dd
=28	=28	=28	=28
1D]	1A]	1f]	1dd]
2AA	2A	2e	2.cc
2A	2F	2f	.
.	.	.	4cc
=29	=29	=29	=29
2G	2G	2d	2b-y
2F	2A	2d	2a
1G	1B-y	1d	1g
=30	=30	=30	=30
1D	1A	1d	1f
2r	2r	2r	2r
2D	2d	2f	2a
=31	=31	=31	=31
2A	2c	2e	2a
2D	2d	2f	2a
2G	2d	2g	2b-y
2G	2d	2g	2b-y
=32	=32	=32	=32
2D	2d	2f	2a
2D	2A	2d	2f
2G	2B-y	2d	2g
2D	2A	2d	2f
=33	=33	=33	=33
1G	1B-y	1d	1g
1D	1A	1d	1f
=34	=34	=34	=34
2r	2r	2r	2r
2D	2A	2d	2f
2.D	2.A	2.d	2.f
4D	4A	4d	4f
=35	=35	=35	=35
2D	2A	2d	2f
2D	2A	2d	2f
1C	1c	1e	4g
.	.	.	4f
.	.	.	4g
.	.	.	4a
=36	=36	=36	=36
1BB-y	1d	1f	2b-y
.	.	.	2b-y
2C	2.c	2e	2a
2C	.	2e	[2g
.	4B-y	.	.
=37	=37	=37	=37
1D	1A	1d	4g]
.	.	.	8f#iL
.	.	.	8eJ
.	.	.	2f#i
[1GG	[1G	[1d	[1g
=38	=38	=38	=38
1GG;]	1G;]	1d;]	1g;]
1D	1A	1d	1f
=39	=39	=39	=39
2BB-y	2.B-y	2d	2f
2BB-y	.	2d	2f
.	4A	.	.
2B-y	2G	2d	2g
2A	2D	2f	2a
=40	=40	=40	=40
1G	1d	1g	1b-y
2D	2d	2f	2a
2G	2B-y	2d	2g
=41	=41	=41	=41
0G	0d	0g	0b-y
=42	=42	=42	=42
1D	1d	1f	1a
2A	2c	2e	2a
2B-y	[2d	2d	2g
=43	=43	=43	=43
1A	4d]	1e	1a
.	8c#iL	.	.
.	8BniJ	.	.
.	2c#i	.	.
1D	1d	1f	1a
=44	=44	=44	=44
2r	2r	2r	2r
2D	2d	2f	2a
2F	2c	2f	2a
2F	2f	2a	2cc
=45	=45	=45	=45
2G	2e	2.g	2cc
2G	2d	.	2b-y
.	.	4f	.
1A	1c	1e	[1cc
=46	=46	=46	=46
1F	1A	1f	2cc]
.	.	.	2cc
2F	2c	2f	2a
2G	2B-y	2d	2b-y
=47	=47	=47	=47
1C	1c	1e	1g
1D	1A	1d	1f
=48	=48	=48	=48
2r	2r	2r	2r
2D	2A	2d	2f
2D	2B-y	2d	2f
2D	2A	2d	2f
=49	=49	=49	=49
2G	2B-y	2d	2g
2G	2B-y	2d	2g
2.F	4c	2f	1a
.	4B-y	.	.
.	4A	2c	.
4E	4G	.	.
=50	=50	=50	=50
4D	4F	2r	2a
4C	4E	.	.
4BB-y	2D	2.d	2.b-y
4AA	.	.	.
2GG	2.d	.	.
.	.	4c	4a
[2G	.	4B-y	4g
.	4c	4A	4f
=51	=51	=51	=51
4G]	2B-y	2G	2g
4F	.	.	.
4E	2.e-i	2.g	2.cc
4D	.	.	.
1C	.	.	.
.	4d	4f	4b-y
.	4c	2e	4a
.	4B-y	.	4g
=52	=52	=52	=52
2D	2A	2d	2f
2BB-y	2d	2f	2b-y
1C	2.c	1e	2a
.	.	.	[2g
.	4B-y	.	.
=53	=53	=53	=53
1D	1A	1d	2g]
.	.	.	2f#i
[1GGl	[1Gl	[1dl	[1gl
=54	=54	=54	=54
00GG]	00G]	00d]	00g]
==	==	==	==
*-	*-	*-	*-
!!!system-decoration: [*]
!!!RDF**kern: i = editorial accidental
!!!RDF**kern: l = terminal long
!!!ENC: Benjamin Ory
!!!END: 2021/2/18
!!!EED: Benjamin Ory
!!!EEV: 2021/04/29
!!!YEC: Copyright 2021 Benjamin Ory, All Rights Reserved
!!!ONB: Translated from MusicXML on 2021/04/29
